!!!!SEGMENT: pl-wtm--r-704-m--006_moniuszko-stanislaw--widma-no-3-guslarz.krn
!!!cenid: 18xx:3062
!!!COM: Moniuszko, Stanisław
!!!COM-rism: pe30008351
!!!CDT: 1819/05/05-1872/06/04
!!!CNT: Polish
!!!OTL: Widma
!!!PDT: 1852
!!!AGN: Secular
!!!SMS-siglum: PL-Wtm
!!!SMS-shelfmark: R 704/M
!!!NIFC-rismID: 1001093778
!!!URL-scan: http://repozytorium.nifc.pl/skany/pl-wtm-nut--r704m
!!!ONB-nifc: UWAGA: skany 0021 (Moderato-Guślarz „A kto prośby nie posłucha”) - 0022, Nie wpisywać tekstu rosyjskiego i samodzielnych dialogów poza krótkimi didaskaliami.
!!!SMS-variant:
!!!SMS-altvar:
!!!OMD: Moderato.
**kern	**kern	**dynam	**kern	**text	**dynam	**kern	**text	**dynam	**kern	**text	**text	**dynam	**kern	**text	**dynam	**kern	**text	**text	**dynam
*part6	*part6	*part6	*part5	*part5	*part5	*part4	*part4	*part4	*part3	*part3	*part3	*part3	*part2	*part2	*part2	*part1	*part1	*part1	*part1
*staff7	*staff6	*	*staff5	*staff5	*	*staff4	*staff4	*	*staff3	*staff3	*staff3	*	*staff2	*staff2	*	*staff1	*staff1	*staff1	*
*I"Forte-piano.	*I"Forte-piano.	*	*I"[Basso]	*	*	*I"[Tenore]	*	*	*I"[Alto]	*	*	*	*I"[Soprano]	*	*	*I"Guślarz.	*	*	*
*clefF4	*clefG2	*	*clefF4	*	*	*clefG2	*	*	*clefG2	*	*	*	*clefG2	*	*	*clefF4	*	*	*
*	*	*	*	*	*	*ITrd8c12	*	*	*	*	*	*	*	*	*	*	*	*	*
*k[b-]	*k[b-]	*	*k[b-]	*	*	*k[b-]	*	*	*k[b-]	*	*	*	*k[b-]	*	*	*k[b-]	*	*	*
*M3/4	*M3/4	*	*M3/4	*	*	*M3/4	*	*	*M3/4	*	*	*	*M3/4	*	*	*M3/4	*	*	*
*	*	*	*	*	*	*	*	*	*	*	*	*	*	*	*	*	*	*color:red	*
=1	=1	=1	=1	=1	=1	=1	=1	=1	=1	=1	=1	=1	=1	=1	=1	=1	=1	=1	=1
2.r	(8d/L	.	2.ryy	.	.	2.ryy	.	.	2.ryy	.	.	.	2.ryy	.	.	8D\	A	Ma	.
.	8f/J	.	.	.	.	.	.	.	.	.	.	.	.	.	.	8F\	kto	chi	.
.	4.a/	.	.	.	.	.	.	.	.	.	.	.	.	.	.	4.A\	pro-	sor-	.
.	8g/	.	.	.	.	.	.	.	.	.	.	.	.	.	.	8G\	-śby	-da_e'_al-	.
=2	=2	=2	=2	=2	=2	=2	=2	=2	=2	=2	=2	=2	=2	=2	=2	=2	=2	=2	=2
4r	8f/L	.	2.ryy	.	.	2.ryy	.	.	2.ryy	.	.	.	2.ryy	.	.	8F\	nie	-la	.
.	8d/J)	.	.	.	.	.	.	.	.	.	.	.	.	.	.	8D\	po-	mia	.
!	!LO:TX:t=P:problem:accentlike diminuendo	!	!	!	!	!	!	!	!	!	!	!	!	!	!	!LO:T:color=grey	!	!	!
(4E\	(4e^/	>	.	.	.	.	.	.	.	.	.	.	.	.	.	[4E\	-słu-	vo-	.
8AA/)	8A/)	]	.	.	.	.	.	.	.	.	.	.	.	.	.	8E]@ 8AA/	-cha,	-ce,	.
8r	8r	.	.	.	.	.	.	.	.	.	.	.	.	.	.	8r	.	.	.
=3	=3	=3	=3	=3	=3	=3	=3	=3	=3	=3	=3	=3	=3	=3	=3	=3	=3	=3	=3
!	!	!	!	!	!	!	!	!	!	!	!	!	!	!	!	!	!	!	!LO:HP:a
2.r	(8d/L	.	2.ryy	.	.	2.ryy	.	.	2.ryy	.	.	.	2.ryy	.	.	8D\	w_i-	ce-	<
.	8f/J	.	.	.	.	.	.	.	.	.	.	.	.	.	.	8F\	-mie	-de-	.
!	!	!	!	!	!	!	!	!	!	!	!	!	!	!	!	!	!	!	!LO:HP:a
.	.	.	.	.	.	.	.	.	.	.	.	.	.	.	.	.	.	.	[
.	4.a/	.	.	.	.	.	.	.	.	.	.	.	.	.	.	4.A\	Oj-	-ra	>
.	8g/	.	.	.	.	.	.	.	.	.	.	.	.	.	.	8G\	-ca,	nan-	]
!!LO:LB:g=original
=4	=4	=4	=4	=4	=4	=4	=4	=4	=4	=4	=4	=4	=4	=4	=4	=4	=4	=4	=4
4r	8f/L	.	2.ryy	.	.	2.ryy	.	.	2.ryy	.	.	.	2.ryy	.	.	8F\	Sy-	-zi	.
.	8d/J)	.	.	.	.	.	.	.	.	.	.	.	.	.	.	8D\	-na,	la	.
!	!	!	!	!	!	!	!	!	!	!	!	!	!	!	!	!LO:T:color=grey	!	!	!
(4E\	(4e/	>	.	.	.	.	.	.	.	.	.	.	.	.	.	[4E\	Du-	Cro-	.
8AA/)	8A/)	]	.	.	.	.	.	.	.	.	.	.	.	.	.	8E] 8AA/	-cha,	-ce	.
8r	8r	.	.	.	.	.	.	.	.	.	.	.	.	.	.	8r	.	.	.
=5	=5	=5	=5	=5	=5	=5	=5	=5	=5	=5	=5	=5	=5	=5	=5	=5	=5	=5	=5
(4D^\	(4d^>/	.	2.ryy	.	.	2.ryy	.	.	2.ryy	.	.	.	2.ryy	.	.	8r	.	.	.
.	.	.	.	.	.	.	.	.	.	.	.	.	.	.	.	8D\	wi-	del	.
8E\L|	8e/L|	<	.	.	.	.	.	.	.	.	.	.	.	.	.	8E\	-dzi-	San-	.
8F\|	8f/|	.	.	.	.	.	.	.	.	.	.	.	.	.	.	8F\	-cie	-to	.
8G\|	8g/|	.	.	.	.	.	.	.	.	.	.	.	.	.	.	8G\	pań-	Re-	.
8A\J)|	8a/J)|	[[	.	.	.	.	.	.	.	.	.	.	.	.	.	8A\	-ski	-dem-	.
=6	=6	=6	=6	=6	=6	=6	=6	=6	=6	=6	=6	=6	=6	=6	=6	=6	=6	=6	=6
*2\right	*2\right	*	*	*	*	*	*	*	*	*	*	*	*	*	*	*2\right	*	*	*
!LO:TX:a:t=V&colon; S&colon;	!	!LO:DY:rj	!	!	!	!	!	!	!	!	!	!	!	!	!	!LO:TX:a:t=V&colon; S&colon;	!	!	!
2.B-^<\	2.b-^<;\	sf	2.ryy	.	.	2.ryy	.	.	2.ryy	.	.	.	2.ryy	.	.	2.B-;\	krzyż?	-tor!	.
!!LO:PB:g=original
=7	=7	=7	=7	=7	=7	=7	=7	=7	=7	=7	=7	=7	=7	=7	=7	=7	=7	=7	=7
*	*	*	*	*	*	*	*	*	*	*	*	*	*	*	*	*^	*	*	*
*	*	*	*	*	*	*	*	*	*	*	*	*	*	*	*	*	*	*	*above	*
!	!	!LO:DY:rj	!	!	!	!	!	!	!	!	!	!	!	!	!	!	!LO:TX:t=P:problem:dot.color=grey	!	!	!
!	!	!	!	!	!	!	!	!	!	!	!	!	!	!	!	!	!LO:TX:t=P:problem:stem.color=grey	!	!	!
4A\|	4a|/	p	2.ryy	.	.	2.ryy	.	.	2.ryy	.	.	.	2.ryy	.	.	4A\	8.A\	nie	Se	.
.	.	.	.	.	.	.	.	.	.	.	.	.	.	.	.	.	16A@\	.	.	.
(8E\L	(8e/L	.	.	.	.	.	.	.	.	.	.	.	.	.	.	8E\	4ryy	chce-	l'in-	.
8G\J	8g/J	.	.	.	.	.	.	.	.	.	.	.	.	.	.	8G\	.	-cie	-can-	.
4F\)	4f/)	.	.	.	.	.	.	.	.	.	.	.	.	.	.	4F\	4ryy	ja-	-te-	.
=8	=8	=8	=8	=8	=8	=8	=8	=8	=8	=8	=8	=8	=8	=8	=8	=8	=8	=8	=8	=8
!	!	!	!	!	!	!	!	!	!	!	!	!	!	!	!	!	!LO:TX:t=P:problem:stem.color=grey	!	!	!
(8D\L	(8d/L	.	2.ryy	.	.	2.ryy	.	.	2.ryy	.	.	.	2.ryy	.	.	8D\	8D\L	-dła,	-si-	.
8F\J	8f/J	.	.	.	.	.	.	.	.	.	.	.	.	.	.	8F\	8F\J	na-	-mo_ē	.
!	!	!	!	!	!	!	!	!	!	!	!	!	!	!	!	!LO:S:color=grey	!	!	!	!
4E\	4e/	.	.	.	.	.	.	.	.	.	.	.	.	.	.	(4E\	4ryy	-po-	va-	.
8AA/)	8A/)	.	.	.	.	.	.	.	.	.	.	.	.	.	.	8AA/)	4ryy	-ju,	-no,	.
8r	8r	.	.	.	.	.	.	.	.	.	.	.	.	.	.	8r	.	.	.	.
*	*	*	*	*	*	*	*	*	*	*	*	*	*	*	*	*v	*v	*	*	*
=9	=9	=9	=9	=9	=9	=9	=9	=9	=9	=9	=9	=9	=9	=9	=9	=9	=9	=9	=9
4A\|	4a|/	.	2.ryy	.	.	2.ryy	.	.	2.ryy	.	.	.	2.ryy	.	.	4A\	zos-	i-	.
(8E\L	(8e/L	.	.	.	.	.	.	.	.	.	.	.	.	.	.	8E\	-taw-	-te	.
8G\J	8g/J	.	.	.	.	.	.	.	.	.	.	.	.	.	.	8G\	-cież	da	.
4F\)	4f/)	.	.	.	.	.	.	.	.	.	.	.	.	.	.	4F\	nas	noi	.
=10	=10	=10	=10	=10	=10	=10	=10	=10	=10	=10	=10	=10	=10	=10	=10	=10	=10	=10	=10
*	*	*	*	*	*	*	*	*	*	*	*	*	*	*	*	*^	*	*	*
(8D\L	(8d/L	.	2.ryy	.	.	2.ryy	.	.	2.ryy	.	.	.	2.ryy	.	.	8D/@	8D\L	w_po-	lon-	.
8F\J	8f/J	.	.	.	.	.	.	.	.	.	.	.	.	.	.	8F/@	8F\J	.	.	.
!	!	!	!	!	!	!	!	!	!	!	!	!	!	!	!	!LO:S:color=grey	!	!	!	!
4E\	4e/	.	.	.	.	.	.	.	.	.	.	.	.	.	.	(4E\	4ryy	-ko-	-ta-	.
8AA/)	8A/)	.	.	.	.	.	.	.	.	.	.	.	.	.	.	8A/)@	8AA/	-ju;	-no,	.
8r	8r	.	.	.	.	.	.	.	.	.	.	.	.	.	.	8r	8ryy	.	.	.
!!LO:LB:g=original
=11	=11	=11	=11	=11	=11	=11	=11	=11	=11	=11	=11	=11	=11	=11	=11	=11	=11	=11	=11	=11
*	*	*	*	*	*	*	*	*	*	*	*	*	*	*	*	*	*	*	*below	*
!	!	!	!	!	!	!	!	!	!	!	!	!	!	!	!	!	!LO:TX:t=P:problem:stem.color=red	!	!	!
!	!	!	!	!	!	!	!	!	!	!	!	!	!	!	!	!	!LO:TX:t=P:problem:dot.color=red	!	!	!
4D\|	4dd 4d/|	.	2.ryy	.	.	2.ryy	.	.	2.ryy	.	.	.	2.ryy	.	.	4d\|	8.d/	a	i-	.
.	.	.	.	.	.	.	.	.	.	.	.	.	.	.	.	.	16d/§	.	-te	.
2GG^/	2g 2G^/	.	.	.	.	.	.	.	.	.	.	.	.	.	.	2G^\	2G/§	kysz,	fuor,	.
=12	=12	=12	=12	=12	=12	=12	=12	=12	=12	=12	=12	=12	=12	=12	=12	=12	=12	=12	=12	=12
!	!	!	!	!	!	!	!	!	!	!	!	!	!	!	!	!	!LO:TX:t=P:problem:stem.color=red	!	!	!
!	!	!	!	!	!	!	!	!	!	!	!	!	!	!	!	!	!LO:TX:t=P:problem:dot.color=red	!	!	!
4C/|	4cc 4c/|	.	2.ryy	.	.	2.ryy	.	.	2.ryy	.	.	.	2.ryy	.	.	4c\|	8.c/	a	i-	.
.	.	.	.	.	.	.	.	.	.	.	.	.	.	.	.	.	16c/§	.	-te	.
2F 2FF^/	2f^/	.	.	.	.	.	.	.	.	.	.	.	.	.	.	2F^\	2F/§	kysz	fuor!	.
=13	=13	=13	=13	=13	=13	=13	=13	=13	=13	=13	=13	=13	=13	=13	=13	=13	=13	=13	=13	=13
!	!	!	!	!	!	!	!	!	!	!	!	!	!	!	!	!	!LO:TX:t=P:problem:stem.color=red	!	!	!
!	!	!	!	!	!	!	!	!	!	!	!	!	!	!	!	!	!LO:TX:t=P:problem:dot.color=red	!	!	!
4AA/|	8.aL 8.A/	.	2.ryy	.	.	2.ryy	.	.	2.ryy	.	.	.	2.ryy	.	.	4A\|	8.A/	a	i-	.
.	16d/Jk	.	.	.	.	.	.	.	.	.	.	.	.	.	.	.	16D/§	.	-te	.
[2D [2AA [2DD\	[2d [>2A/	.	.	.	.	.	.	.	.	.	.	.	.	.	.	[2D\	2ryy	kysz!	fuor!	.
*	*	*	*	*	*	*	*	*	*	*	*	*	*	*	*	*v	*v	*	*	*
=14	=14	=14	=14	=14	=14	=14	=14	=14	=14	=14	=14	=14	=14	=14	=14	=14	=14	=14	=14
2.D] 2.AA] 2.DD\]	2.d] 2.A/]	.	2.ryy	.	.	2.ryy	.	.	2.ryy	.	.	.	2.ryy	.	.	2D\]	.	.	.
.	.	.	.	.	.	.	.	.	.	.	.	.	.	.	.	4r	.	.	.
!!LO:LB:g=original
=15	=15	=15	=15	=15	=15	=15	=15	=15	=15	=15	=15	=15	=15	=15	=15	=15	=15	=15	=15
!	!	!	!	!	!	!	!	!	!	!	!	!	!LO:S:color=grey	!	!	!	!	!	!
!	!	!	!LO:S:color=grey	!	!	!LO:S:color=grey	!	!	!LO:S:color=grey	!	!	!	!LO:TX:a:B:t=Chór.:rj	!	!	!	!	!	!
(8D\L	(8d/L	.	(8D\	a	.	(8D/	a	.	(8d/	a	Se	.	(8d/	a	.	2.ryy	.	.	.
8F\J	8f/J	.	8F\)	kto	.	8F/)	kto	.	8f/)	kto	non	.	8f/)	kto	.	.	.	.	.
*	*	*	*	*ij	*	*	*ij	*	*	*ij	*	*	*	*	*	*	*	*	*
4.A\	4.a/	.	4.A\	proź-	.	4.A/	proź-	.	4.a/	proź-	ba-	.	4.a/	proź-	.	.	.	.	.
8G\	8g/	.	8G\	-by	.	8G/	-by	.	8g/	-by	-sta	.	8g/	-by	.	.	.	.	.
=16	=16	=16	=16	=16	=16	=16	=16	=16	=16	=16	=16	=16	=16	=16	=16	=16	=16	=16	=16
8F\L	8f/L	.	8F\	nie	.	8F/	nie	.	8f/	nie	la	.	8f/	nie	.	2.ryy	.	.	.
8D\J)	8d/J)	.	8D\	po-	.	8D/	po-	.	8d/	po-	sua	.	8d/	po-	.	.	.	.	.
!	!	!LO:HP:a	!	!	!	!	!	!	!	!	!	!	!	!	!	!	!	!	!
([4E 4BB- 4EE/	([4e 4d 4G#X/	>	4E\	-słu-	.	4E/	-słu-	.	4e/	-słu-	vo-	.	4e/	-słu-	.	.	.	.	.
8E] 8AA/)	8e] 8c#X 8A/)	]	8AA/	-cha,	.	8A/	-cha,	.	8A/	-cha,	-ce,	.	8A/	-cha,	.	.	.	.	.
8r	8r	.	8r	.	.	8r	.	.	8r	.	.	.	8r	.	.	.	.	.	.
=17	=17	=17	=17	=17	=17	=17	=17	=17	=17	=17	=17	=17	=17	=17	=17	=17	=17	=17	=17
!	!	!	!	!	!LO:HP:a	!	!	!LO:HP:a	!	!	!	!LO:HP:a	!	!	!LO:HP:a	!	!	!	!
(8D\L	(8d/L	.	8D\	w_i-	<	8D/	w_i-	<	8d/	w_i-	an-	<	8d/	w_i-	<	2.ryy	.	.	.
8A\J§	8a/J§	.	8A\§	-mie	.	8A/§	-mie	.	8a/§	-mie	-nien-	.	8a/§	-mie	.	.	.	.	.
!	!	!	!	!	!LO:HP:a	!	!	!LO:HP:a	!	!	!	!LO:HP:a	!	!	!LO:HP:a	!	!	!	!
.	.	.	.	.	[	.	.	[	.	.	.	[	.	.	[	.	.	.	.
4.A\	4.a/	.	4.A\	oj-	>	4.A/	oj-	>	4.a/	oj-	-tar	>	4.a/	oj-	>	.	.	.	.
8G\	8g/	.	8G\	-ca,	]	8G/	-ca,	]	8g/	-ca,	vi	]	8g/	-ca,	]	.	.	.	.
=18	=18	=18	=18	=18	=18	=18	=18	=18	=18	=18	=18	=18	=18	=18	=18	=18	=18	=18	=18
8F\L	8f/L	.	8F\	Sy-	.	8F/	Sy-	.	8f/	Sy-	puo'	.	8f/	Sy-	.	2.ryy	.	.	.
8D\J)	8d/J)	.	8D\	-na,	.	8D/	-na,	.	8d/	-na,	la	.	8d/	-na,	.	.	.	.	.
!	!	!LO:HP:a	!	!	!	!	!	!	!	!	!	!	!	!	!	!	!	!	!
(4GG (4GGG/	([4e 4d 4B-X/	>	4E\	Du-	.	4E/	Du-	.	4e/	Du-	Cro-	.	4e/	Du-	.	.	.	.	.
8AA 8AAA/))	8e] 8c#X 8A/)	]	8AA/	-cha,	.	8A/	-cha,	.	8A/	-cha,	-ce	.	8A/	-cha,	.	.	.	.	.
8r	8r	.	8r	.	.	8r	.	.	8r	.	.	.	8r	.	.	.	.	.	.
!!LO:PB:g=original
=19	=19	=19	=19	=19	=19	=19	=19	=19	=19	=19	=19	=19	=19	=19	=19	=19	=19	=19	=19
*	*	*	*^	*	*	*^	*	*	*^	*	*	*	*^	*	*	*	*	*	*
4D 4DD^/	4d^/	.	8r	8.D\@	.	.	8r	8.D/@	.	.	8r	8.d/@	.	.	.	8r	8.d/@	.	.	2.ryy	.	.	.
!	!	!	!	!	!	!LO:DY:a	!	!	!	!LO:HP:a	!	!	!	!	!LO:HP:a	!	!	!	!LO:HP:a	!	!	!	!
.	.	.	8D\	.	wi-	<	8D/	.	wi-	<	8d/	.	wi-	del	<	8d/	.	wi-	<	.	.	.	.
!	!	!	!	!LO:TX:t=P:problem:dodatkowa chorągiewka na 8	!	!	!	!	!	!	!	!LO:TX:t=P:problem:dodatkowa chorągiewka na 8	!	!	!	!	!LO:TX:t=P:problem:dodatkowa chorągiewka na 8	!	!	!	!	!	!
.	.	.	.	16D\@	.	.	.	16ryy	.	.	.	16d/@	.	.	.	.	16d/@	.	.	.	.	.	.
!	!	!LO:HP:t=crescendo	!	!	!	!	!	!	!	!	!	!	!	!	!	!	!	!	!	!	!	!	!
8E^\L	8e^/L	<	8E\	4ryy	-dzi-	.	8E/	4ryy	-dzi-	.	8e/	4ryy	-dzi-	San-	.	8e/	4ryy	-dzi-	.	.	.	.	.
8F^\	8f^/	.	8F\	.	-cie	.	8F/	.	-cie	.	8f/	.	-cie	-to	.	8f/	.	-cie	.	.	.	.	.
8G^\	8g^/	.	8G\	4ryy	pań-	.	8G/	4ryy	pań-	.	8g/	4ryy	pań-	Re-	.	8g/	4ryy	pań-	.	.	.	.	.
8A^\J	8a^/J	.	8A\	.	-ski	[	8A/	.	-ski	[	8a/	.	-ski	-den-	[	8a/	.	-ski	[	.	.	.	.
*	*	*	*v	*v	*	*	*	*	*	*	*v	*v	*	*	*	*v	*v	*	*	*	*	*	*
*	*	*	*	*	*	*v	*v	*	*	*	*	*	*	*	*	*	*	*	*	*
=20	=20	=20	=20	=20	=20	=20	=20	=20	=20	=20	=20	=20	=20	=20	=20	=20	=20	=20	=20
*	*	*	*2\right	*	*	*2\right	*	*	*2\right	*	*	*	*2\right	*	*	*	*	*	*
!	!	!LO:DY:rj	!	!	!LO:DY:a:rj	!	!	!LO:DY:a	!	!	!	!LO:DY:a	!	!	!LO:DY:a	!	!	!	!
N(2.B-\	(2.b-\	fp	[2.B-\	krzyż!	fp	[2.B-/	krzyż!	fp	[2.b-\	krzyż!	-tor	fp	[2.b-\	krzyż!	fp	2.ryy	.	.	.
=21	=21	=21	=21	=21	=21	=21	=21	=21	=21	=21	=21	=21	=21	=21	=21	=21	=21	=21	=21
!	!	!LO:DY:rj	!	!	!	!	!	!	!	!	!	!	!	!	!	!	!	!	!
(>4D 4DD/	(>4a-X 4f [4B-/)N)	pp	2.B-\_	.	.	2.B-/_	.	.	2.b-\_	.	.	.	2.b-\_	.	.	2.ryy	.	.	.
4E-X 4EE-X/	4g 4B-/_	.	.	.	.	.	.	.	.	.	.	.	.	.	.	.	.	.	.
4D-X 4DD-X/	4f 4B-/]	.	.	.	.	.	.	.	.	.	.	.	.	.	.	.	.	.	.
=22	=22	=22	=22	=22	=22	=22	=22	=22	=22	=22	=22	=22	=22	=22	=22	=22	=22	=22	=22
2.C 2.CC;</)	2.en 2.B- 2.G;/)	.	2B-;\]	.	.	2B-;/]	.	.	2b-;\]	.	.	.	2b-;\]	.	.	2.ryy	.	.	.
.	.	.	4r	.	.	4r	.	.	4r	.	.	.	4r	.	.	.	.	.	.
=23	=23	=23	=23	=23	=23	=23	=23	=23	=23	=23	=23	=23	=23	=23	=23	=23	=23	=23	=23
*	*	*	*^	*	*	*^	*	*	*^	*	*	*	*^	*	*	*	*	*	*
!	!	!LO:DY:rj	!	!LO:TX:t=P:problem:stem.color=grey	!	!LO:DY:a:rj	!	!LO:TX:t=P:problem:stem.color=grey	!	!LO:DY:a	!	!LO:TX:t=P:problem:stem.color=grey	!	!	!LO:DY:a	!	!LO:TX:t=P:problem:stem.color=grey	!	!LO:DY:a	!	!	!	!
!	!	!	!	!LO:TX:t=P:problem:dot.color=grey	!	!	!	!LO:TX:t=P:problem:dot.color=grey	!	!	!	!LO:TX:t=P:problem:dot.color=grey	!	!	!	!	!LO:TX:t=P:problem:dot.color=grey	!	!	!	!	!	!
4FF/	4f 4A 4F/	p	4A\	8.A\	nie	p	4A/	8.A/	nie	p	4a/	8.a/	nie	Se	p	4a/	8.a/	nie	p	2.ryy	.	.	.
.	.	.	.	16A\@	.	.	.	16A/@	.	.	.	16a/@	.	.	.	.	16a/@	.	.	.	.	.	.
!	!LO:S:s=2:note:problem:note-level slur	!	!	!	!	!	!	!	!	!	!	!	!	!	!	!	!	!	!	!	!	!	!
(4AA/	(4e (4c#X (4A/	.	8E\	4ryy	chce-	.	8E/	4ryy	chce-	.	8e/	4ryy	chce-	l'in-	.	8e/	4ryy	chce-	.	.	.	.	.
.	.	.	8G\	.	-cie	.	8G/	.	-cie	.	8g/	.	-cie	-ean-	.	8g/	.	-cie	.	.	.	.	.
4D/)	4f) 4d) 4A/)	.	4F\	4ryy	ja-	.	4F/	4ryy	ja-	.	4f/	4ryy	ja-	-te-	.	4f/	4ryy	ja-	.	.	.	.	.
*	*	*	*v	*v	*	*	*	*	*	*	*v	*v	*	*	*	*	*	*	*	*	*	*	*
*	*	*	*	*	*	*v	*v	*	*	*	*	*	*	*	*	*	*	*	*	*	*
=24	=24	=24	=24	=24	=24	=24	=24	=24	=24	=24	=24	=24	=24	=24	=24	=24	=24	=24	=24	=24
!	!	!	!	!	!	!	!	!	!	!	!	!	!	!LO:TX:t=P:problem:stem.color=grey	!	!	!	!	!	!
[4G (<4GG\	(4d 4Bn/	.	8D\	-dła	.	8D/	-dła	.	8d/	-dła	-si-	.	8d/	8d/L	-dła	.	2.ryy	.	.	.
.	.	.	8F\	na-	.	8F/	na-	.	8f/	na-	-mo e'	.	8f/	8f/J	na-	.	.	.	.	.
!	!	!	!	!	!	!LO:T:color=grey	!	!	!LO:S:color=grey	!	!	!	!	!	!	!	!	!	!	!
(4G] (4C\)	4e [4c/)	.	4E\	-po-	.	[4E/	-po-	.	(4e/	-po-	va-	.	4e/	4ryy	-po-	.	.	.	.	.
4A) 4F\)	4f 4c/]	.	8AA/	-ju,	.	8A 8E/@]	-ju,	.	8A/)	-ju,	-no	.	8e@ 8A/	4ryy	-ju,	.	.	.	.	.
.	.	.	8r	.	.	8r	.	.	8r	.	.	.	8r	.	.	.	.	.	.	.
!!LO:LB:g=original
=25	=25	=25	=25	=25	=25	=25	=25	=25	=25	=25	=25	=25	=25	=25	=25	=25	=25	=25	=25	=25
*	*	*	*^	*	*	*^	*	*	*^	*	*	*	*	*	*	*	*	*	*	*
!	!	!	!	!LO:TX:t=P:problem:stem.color=grey	!	!	!	!LO:TX:t=P:problem:stem.color=grey	!	!	!	!LO:TX:t=P:problem:stem.color=grey	!	!	!	!	!LO:TX:t=P:problem:stem.color=grey	!	!	!	!	!	!
!	!	!	!	!LO:TX:t=P:problem:dot.color=grey	!	!	!	!LO:TX:t=P:problem:dot.color=grey	!	!	!	!LO:TX:t=P:problem:dot.color=grey	!	!	!	!	!LO:TX:t=P:problem:dot.color=grey	!	!	!	!	!	!
4AA/	4a 4e 4c/	.	4A\	8.A\	zos-	.	4A/	8.A/	zos-	.	4a/	8.a/	zos-	i-	.	4a/	8.a/	zos-	.	2.ryy	.	.	.
.	.	.	.	16A\@	.	.	.	16A/@	.	.	.	16a/@	.	.	.	.	16a/@	.	.	.	.	.	.
(<4C/	(>4g 4e 4c/	.	8E\	4ryy	-taw-	.	8E/	4ryy	-taw-	.	8e/	4ryy	-taw-	-te	.	8e/	4ryy	-taw-	.	.	.	.	.
.	.	.	8G\	.	-cież	.	8G/	.	-cież	.	8g/	.	-cież	da	.	8g/	.	-cież	.	.	.	.	.
4D\)	4f 4d 4A/)	.	4F\	4ryy	nas	.	4F/	4ryy	nas	.	4f/	4ryy	nas	noi	.	4f/	4ryy	nas	.	.	.	.	.
*	*	*	*v	*v	*	*	*	*	*	*	*v	*v	*	*	*	*v	*v	*	*	*	*	*	*
*	*	*	*	*	*	*v	*v	*	*	*	*	*	*	*	*	*	*	*	*	*
=26	=26	=26	=26	=26	=26	=26	=26	=26	=26	=26	=26	=26	=26	=26	=26	=26	=26	=26	=26
*^	*	*	*	*	*	*	*	*	*	*	*	*	*	*	*	*	*	*	*
(4BB-\	2ryy	(>4f 4d [4B-</	.	8D\L	w_po-	.	8D/L	w_po-	.	8d/L	w_po-	lon-	.	8d/L	w_po-	.	2.ryy	.	.	.
.	.	.	.	8F\J	.	.	8F/J	.	.	8f/J	.	.	.	8f/J	.	.	.	.	.	.
4GG\)	.	4e 4d 4B-</])	.	4E\	-ko-	.	4E/	-ko-	.	4e/	-ko-	-ta-	.	4e/	-ko-	.	.	.	.	.
!	!LO:S:s=1:note:problem:note-level slur	!	!	!	!	!	!	!	!	!	!	!	!	!	!	!	!	!	!	!
4AA\	&(<8A/L	4e 4c#X/	.	8AA/	-ju,	.	8A/	-ju,	.	8A/	-ju,	-no,	.	8a@ 8A/	-ju,	.	.	.	.	.
.	8G/J	.	.	8r	.	.	8r	.	.	8r	.	.	.	8r	.	.	.	.	.	.
=27	=27	=27	=27	=27	=27	=27	=27	=27	=27	=27	=27	=27	=27	=27	=27	=27	=27	=27	=27	=27
*	*	*	*	*^	*	*	*^	*	*	*^	*	*	*	*^	*	*	*	*	*	*
*	*	*	*	*	*^	*	*	*	*	*	*	*	*	*	*	*	*	*	*	*	*	*	*	*
*	*	*	*	*	*	*^	*	*	*	*	*	*	*	*	*	*	*	*	*	*	*	*	*	*	*
!	!	!	!	!	!	!	!	!	!	!	!	!	!	!LO:ACC:color=dodgerblue	!LO:ACC:color=dodgerblue	!	!	!	!	!	!	!	!	!	!	!
!	!	!	!	!	!	!	!	!	!	!	!	!	!	!	!	!	!	!	!	!LO:TX:t=P:problem:stem.color=red	!	!	!	!	!	!
!	!	!	!	!	!	!LO:TX:t=P:problem:dot.color=red	!LO:TX:t=P:problem:dot.color=red	!	!	!	!LO:TX:t=P:problem:dot.color=red	!	!	!	!LO:TX:t=P:problem:dot.color=red	!	!	!	!	!LO:TX:t=P:problem:dot.color=red	!	!	!	!	!	!
8F#X 8D\&)	4ryy	8d 8cn 8A</	.	8D/	8D\	8.D/	8.D\	a	.	8A/	8.A/	a	.	8f#X/	8.f#/	a	i-	.	8dd\	8.dd/	a	.	2.ryy	.	.	.
8r	.	8r	.	8r	8ryy	.	.	.	.	8r	.	.	.	8r	.	.	.	.	8r	.	.	.	.	.	.	.
.	.	.	.	.	.	16D/§	16D\§	.	.	.	16A/§	.	.	.	16f#/§	.	-te	.	.	16dd/§	.	.	.	.	.	.
*2\left	*	*	*	*	*	*	*	*	*	*	*	*	*	*	*	*	*	*	*	*	*	*	*	*	*	*
!	!	!	!	!	!	!	!	!	!	!	!	!	!	!LO:ACC:color=dodgerblue	!	!	!	!	!	!	!	!	!	!	!	!
2Fn 2D\	4r	2d 2Bn 2G</	.	2D 2GG^>/	4ryy	4ryy	4ryy	kysz!	.	2Bn^\	4ryy	kysz!	.	2fn^/	4ryy	kysz!	fuor!	.	2g^/	4ryy	kysz!	.	.	.	.	.
!	!	!	!LO:DY:b=2:rj	!	!	!	!	!	!	!	!	!	!	!	!	!	!	!	!	!	!	!	!	!	!	!
.	8.GGG/L	.	pp	.	4ryy	4ryy	4ryy	.	.	.	4ryy	.	.	.	4ryy	.	.	.	.	4ryy	.	.	.	.	.	.
.	16GGG/Jk	.	.	.	.	.	.	.	.	.	.	.	.	.	.	.	.	.	.	.	.	.	.	.	.	.
*v	*v	*	*	*	*	*	*	*	*	*	*	*	*	*	*	*	*	*	*	*	*	*	*	*	*	*
=28	=28	=28	=28	=28	=28	=28	=28	=28	=28	=28	=28	=28	=28	=28	=28	=28	=28	=28	=28	=28	=28	=28	=28	=28	=28
!	!	!	!	!	!	!	!	!	!	!	!	!	!	!	!	!	!	!	!LO:TX:t=P:problem:stem.color=red	!	!	!	!	!	!
!	!	!	!	!	!LO:TX:t=P:problem:dot.color=red	!LO:TX:t=P:problem:dot.color=red	!	!	!	!LO:TX:t=P:problem:dot.color=red	!	!	!	!LO:TX:t=P:problem:dot.color=red	!	!	!	!	!LO:TX:t=P:problem:dot.color=red	!	!	!	!	!	!
8CC/	8c 8B-X 8G< 8E</	.	8C/	8C\	8.C/	8.C\	a	.	8c\	8.c\	a	.	8e/	8.e/	a	i-	.	8cc\	8.cc/	a	.	2.ryy	.	.	.
8rFF	8r	.	8r	8ryy	.	.	.	.	8r	.	.	.	8r	.	.	.	.	8r	.	.	.	.	.	.	.
.	.	.	.	.	16C/§	16C\§	.	.	.	16c/§	.	.	.	16e/§	.	-te	.	.	16cc/§	.	.	.	.	.	.
4rFF	2c 2A 2F</	.	2C 2FF^>/	4ryy	4ryy	4ryy	kysz!	.	2A^/	4ryy	kysz!	.	2c^/	4ryy	kysz!	fuor!	.	2f^/	4ryy	kysz!	.	.	.	.	.
8.FFF/L	.	.	.	4ryy	4ryy	4ryy	.	.	.	4ryy	.	.	.	4ryy	.	.	.	.	4ryy	.	.	.	.	.	.
16FFF/Jk	.	.	.	.	.	.	.	.	.	.	.	.	.	.	.	.	.	.	.	.	.	.	.	.	.
=29	=29	=29	=29	=29	=29	=29	=29	=29	=29	=29	=29	=29	=29	=29	=29	=29	=29	=29	=29	=29	=29	=29	=29	=29	=29
!	!	!LO:DY:a	!	!	!LO:TX:t=P:problem:dot.color=red	!LO:TX:t=P:problem:dot.color=red	!	!LO:DY:a	!	!LO:TX:t=P:problem:dot.color=red	!	!LO:DY:a	!	!LO:TX:t=P:problem:dot.color=red	!	!	!LO:DY:a	!	!LO:TX:t=P:problem:stem.color=red	!	!LO:DY:a	!	!	!	!
8AAA/	8c#X 8G< 8E</	ppp	8AA/	8AA\	8.AA/	8.AA\	a	ppp	8E/	8.E/	a	ppp	8c#X/	8.c#/	a	i-	ppp	8a/	8.a/	a	ppp	2.ryy	.	.	.
8r	8r	.	8r	8ryy	.	.	.	.	8r	.	.	.	8r	.	.	.	.	8r	.	.	.	.	.	.	.
.	.	.	.	.	16AA/§	16AA\§	.	.	.	16E\§	.	.	.	16c#/§	.	-te	.	.	16a/§	.	.	.	.	.	.
*8ba	*	*	*	*	*	*	*Xij	*	*	*	*Xij	*	*	*	*Xij	*	*	*	*	*	*	*	*	*	*
*2\right	*	*	*	*	*	*	*	*	*	*	*	*	*	*	*	*	*	*	*	*	*	*	*	*	*
!LO:TX:t=P:problem:fermata pod kreską taktową	!	!	!	!	!	!	!	!	!	!	!	!	!	!	!	!	!	!	!	!	!	!	!	!	!
!LO:TX:b:i:t=(L' apparizione stanisce ):color=red	!LO:TX:b:B:t=fine	!	!	!	!	!	!	!	!	!	!	!	!	!	!	!	!	!	!	!	!	!	!	!	!
!LO:TX:b:i:t=(&colon; Widmo znika &colon;)	!LO:TX:t=P:problem:fermata nad kreską taktową	!	!LO:TX:t=P:problem:fermata pod kreską taktową	!	!	!	!	!	!	!	!	!	!	!	!	!	!	!LO:TX:t=P:problem:fermata nad kreską taktową	!	!	!	!	!	!	!
2AAA 2DDD;<\	2d 2F#X< 2D<;/	.	2D 2AA 2DD;/	2ryy	2ryy	2ryy	kysz!	.	2F#X;/	2ryy	kysz!	.	2A;/	2ryy	kysz!	fuor!	.	2d;/	2ryy	kysz!	.	.	.	.	.
*X8ba	*	*	*	*	*	*	*	*	*	*	*	*	*	*	*	*	*	*	*	*	*	*	*	*	*
*	*	*	*v	*v	*v	*v	*	*	*	*	*	*	*v	*v	*	*	*	*v	*v	*	*	*	*	*	*
*	*	*	*	*	*	*v	*v	*	*	*	*	*	*	*	*	*	*	*	*	*
==	==	==	==	==	==	==	==	==	==	==	==	==	==	==	==	==	==	==	==
*-	*-	*-	*-	*-	*-	*-	*-	*-	*-	*-	*-	*-	*-	*-	*-	*-	*-	*-	*-
!!!system-decoration: s1[s2,s3,s4,s5][(s6,s7)]
!!!RDF**kern: > = above
!!!RDF**kern: < = below
!!!RDF**kern: | = vertical stroke
!!!RDF**kern: N = linked
!!!RDF**dynam: sf = "sf."
!!!RDF**dynam: p = "p."
!!!RDF**dynam: ppp = "ppp."
!!!RDF**dynam: fp = "fp."
!!!RDF**kern: @ = marked note, color=grey
!!!RDF**kern: § = marked note, color=red
!!!ENC: Anastazja Marusiak
!!!END: 2021-09-13
!!!ENC: Andrzej Kubiczek
!!!END: 2021-10-12
